src/assets/cards/4S.svg

<svg clip-rule="evenodd" fill-rule="evenodd" stroke-linejoin="round" stroke-miterlimit="2" viewBox="0 0 934 1300" xmlns="http://www.w3.org/2000/svg"><g fill-rule="nonzero"><path d="m75.92 193.621v-11.716h10.775v-19.318h-53.852v-13.636l58.268-87.91 9.521.038v87.872h16.47v13.636h-16.47l-.314 19.318h9.032v11.716zm10.775-100.404-36.993 55.734h36.993z"/><path d="m857.414 1106.39v11.72h-10.776v19.32h53.853v13.62l-58.268 87.91-9.521-.03v-87.88h-16.471v-13.62h16.471l.313-19.32h-9.032v-11.72zm-10.776 100.41 36.993-55.75h-36.993z"/><path d="m225.408 283.394c.083-8.442-6.625-8.6-6.542-2.442-.541 30.954-26.75 46.196-45.75 42.579-29.333-5.575-38.666-34.675-38.375-51.812.834-52.904 54.084-91.913 102.167-159.729 35.208 61.212 93.292 109.291 96.75 156.608 4.583 62.908-75.042 86.371-86.417 13.05-.708-5.179-6.833-7.504-6.333-.271 1.708 20.096-.75 28.467 21.917 78h-59.25c13.125-23.146 20.916-51.562 21.833-75.983z"/><path d="m690.116 283.394c.084-8.442-6.583-8.6-6.541-2.442-.542 30.954-26.709 46.196-45.75 42.579-29.292-5.575-38.667-34.675-38.375-51.812.875-52.904 54.125-91.913 102.166-159.729 35.209 61.212 93.334 109.291 96.75 156.608 4.584 62.908-75.041 86.371-86.375 13.05-.75-5.179-6.833-7.504-6.375-.271 1.709 20.096-.75 28.467 21.917 78h-59.25c13.125-23.146 20.958-51.562 21.833-75.983z"/><path d="m225.45 1016.61c.083 8.44-6.625 8.6-6.542 2.44-.542-30.956-26.708-46.194-45.75-42.581-29.292 5.575-38.667 34.671-38.375 51.821.833 52.89 54.083 91.9 102.167 159.72 35.208-61.21 93.291-109.29 96.75-156.6 4.583-62.912-75.042-86.379-86.417-13.06-.708 5.18-6.833 7.51-6.333.27 1.708-20.093-.75-28.46 21.916-77.993h-59.25c13.125 23.142 20.959 51.558 21.834 75.983z"/><path d="m690.158 1016.61c.083 8.44-6.583 8.6-6.5 2.44-.583-30.956-26.75-46.194-45.792-42.581-29.291 5.575-38.666 34.671-38.375 51.821.875 52.89 54.125 91.9 102.167 159.72 35.208-61.21 93.333-109.29 96.75-156.6 4.583-62.912-75.042-86.379-86.417-13.06-.708 5.18-6.791 7.51-6.333.27 1.708-20.093-.75-28.46 21.958-77.993h-59.291c13.125 23.142 20.958 51.558 21.833 75.983z"/><path d="m72.43 292.261c.042-3.629-3.708-1.934-4.208-.792-4.875 8.275-11.959 10.2-18.959 7.217-6.958-2.954-10.833-9.5-10.25-18.842 1.334-14.325 12.667-30 18.167-38.862 5.208-8.038 10.958-17.592 17-29.809 7.042 14.017 10.625 18.004 18.333 30.8 6.792 11.267 16.209 22.304 16.959 35.925 0 10.354-4.375 20.134-14.167 21.917-5.542 1.008-10.75-1.842-14.583-8.488-1.209-1.695-3.542-.812-3.5 1.509.666 8.721 3.958 16.596 11.791 25.879h-28.708c5.875-6.567 11.875-15.429 12.125-26.454z"/><path d="m852.513 1008.93c.042 3.63-3.708 1.94-4.25.79-4.833-8.27-11.916-10.197-18.916-7.21-6.959 2.95-10.875 9.5-10.25 18.84 1.291 14.32 12.666 30 18.166 38.86 5.209 8.04 10.959 17.59 17 29.81 7.042-14.01 10.625-18 18.334-30.8 6.791-11.27 16.208-22.31 16.958-35.93 0-10.35-4.375-20.13-14.167-21.91-5.541-1.01-10.75 1.84-14.625 8.49-1.166 1.69-3.5.81-3.458-1.51.667-8.724 3.958-16.599 11.75-25.883h-28.667c5.875 6.567 11.875 15.434 12.125 26.453z"/></g></svg>

<?xml version="1.0" encoding="UTF-8" standalone="no"?>
<!DOCTYPE svg PUBLIC "-//W3C//DTD SVG 1.1//EN" "http://www.w3.org/Graphics/SVG/1.1/DTD/svg11.dtd">
<svg width="100%" height="100%" viewBox="0 0 934 1300" version="1.1" xmlns="http://www.w3.org/2000/svg" xmlns:xlink="http://www.w3.org/1999/xlink" xml:space="preserve" xmlns:serif="http://www.serif.com/" style="fill-rule:evenodd;clip-rule:evenodd;stroke-linejoin:round;stroke-miterlimit:2;">
    <g id="_4S" serif:id="4S">
        <g id="path7104-6">
            <path d="M75.92,193.621L75.92,181.905L86.695,181.905L86.695,162.587L32.843,162.587L32.843,148.951L91.111,61.041L100.632,61.079L100.632,148.951L117.102,148.951L117.102,162.587L100.632,162.587L100.318,181.905L109.35,181.905L109.35,193.621L75.92,193.621ZM86.695,93.217L49.702,148.951L86.695,148.951L86.695,93.217Z" style="fill-rule:nonzero;"/>
        </g>
        <g id="path7159-1">
            <path d="M857.414,1106.39L857.414,1118.11L846.638,1118.11L846.638,1137.43L900.491,1137.43L900.491,1151.05L842.223,1238.96L832.702,1238.93L832.702,1151.05L816.231,1151.05L816.231,1137.43L832.702,1137.43L833.015,1118.11L823.983,1118.11L823.983,1106.39L857.414,1106.39ZM846.638,1206.8L883.631,1151.05L846.638,1151.05L846.638,1206.8Z" style="fill-rule:nonzero;"/>
        </g>
        <g id="path3198">
            <path d="M225.408,283.394C225.491,274.952 218.783,274.794 218.866,280.952C218.325,311.906 192.116,327.148 173.116,323.531C143.783,317.956 134.45,288.856 134.741,271.719C135.575,218.815 188.825,179.806 236.908,111.99C272.116,173.202 330.2,221.281 333.658,268.598C338.241,331.506 258.616,354.969 247.241,281.648C246.533,276.469 240.408,274.144 240.908,281.377C242.616,301.473 240.158,309.844 262.825,359.377L203.575,359.377C216.7,336.231 224.491,307.815 225.408,283.394Z" style="fill-rule:nonzero;"/>
        </g>
        <g id="path3200">
            <path d="M690.116,283.394C690.2,274.952 683.533,274.794 683.575,280.952C683.033,311.906 656.866,327.148 637.825,323.531C608.533,317.956 599.158,288.856 599.45,271.719C600.325,218.815 653.575,179.806 701.616,111.99C736.825,173.202 794.95,221.281 798.366,268.598C802.95,331.506 723.325,354.969 711.991,281.648C711.241,276.469 705.158,274.144 705.616,281.377C707.325,301.473 704.866,309.844 727.533,359.377L668.283,359.377C681.408,336.231 689.241,307.815 690.116,283.394Z" style="fill-rule:nonzero;"/>
        </g>
        <g id="path3260">
            <path d="M225.45,1016.61C225.533,1025.05 218.825,1025.21 218.908,1019.05C218.366,988.094 192.2,972.856 173.158,976.469C143.866,982.044 134.491,1011.14 134.783,1028.29C135.616,1081.18 188.866,1120.19 236.95,1188.01C272.158,1126.8 330.241,1078.72 333.7,1031.41C338.283,968.498 258.658,945.031 247.283,1018.35C246.575,1023.53 240.45,1025.86 240.95,1018.62C242.658,998.527 240.2,990.16 262.866,940.627L203.616,940.627C216.741,963.769 224.575,992.185 225.45,1016.61Z" style="fill-rule:nonzero;"/>
        </g>
        <g id="path3262">
            <path d="M690.158,1016.61C690.241,1025.05 683.575,1025.21 683.658,1019.05C683.075,988.094 656.908,972.856 637.866,976.469C608.575,982.044 599.2,1011.14 599.491,1028.29C600.366,1081.18 653.616,1120.19 701.658,1188.01C736.866,1126.8 794.991,1078.72 798.408,1031.41C802.991,968.498 723.366,945.031 711.991,1018.35C711.283,1023.53 705.2,1025.86 705.658,1018.62C707.366,998.527 704.908,990.16 727.616,940.627L668.325,940.627C681.45,963.769 689.283,992.185 690.158,1016.61Z" style="fill-rule:nonzero;"/>
        </g>
        <g id="path3314">
            <path d="M72.43,292.261C72.472,288.632 68.722,290.327 68.222,291.469C63.347,299.744 56.263,301.669 49.263,298.686C42.305,295.732 38.43,289.186 39.013,279.844C40.347,265.519 51.68,249.844 57.18,240.982C62.388,232.944 68.138,223.39 74.18,211.173C81.222,225.19 84.805,229.177 92.513,241.973C99.305,253.24 108.722,264.277 109.472,277.898C109.472,288.252 105.097,298.032 95.305,299.815C89.763,300.823 84.555,297.973 80.722,291.327C79.513,289.632 77.18,290.515 77.222,292.836C77.888,301.557 81.18,309.432 89.013,318.715L60.305,318.715C66.18,312.148 72.18,303.286 72.43,292.261Z" style="fill-rule:nonzero;"/>
        </g>
        <g id="path3336">
            <path d="M852.513,1008.93C852.555,1012.56 848.805,1010.87 848.263,1009.72C843.43,1001.45 836.347,999.523 829.347,1002.51C822.388,1005.46 818.472,1012.01 819.097,1021.35C820.388,1035.67 831.763,1051.35 837.263,1060.21C842.472,1068.25 848.222,1077.8 854.263,1090.02C861.305,1076.01 864.888,1072.02 872.597,1059.22C879.388,1047.95 888.805,1036.91 889.555,1023.29C889.555,1012.94 885.18,1003.16 875.388,1001.38C869.847,1000.37 864.638,1003.22 860.763,1009.87C859.597,1011.56 857.263,1010.68 857.305,1008.36C857.972,999.636 861.263,991.761 869.055,982.477L840.388,982.477C846.263,989.044 852.263,997.911 852.513,1008.93Z" style="fill-rule:nonzero;"/>
        </g>
    </g>
</svg>
